X:1
T:Itsumo Nando
T:Tyler Morgan
%%score { 1 | 2 } 3
L:1/8
M:8/8
K:Bb
V:1 treble nm="Harp" snm="Hrp."
V:2 bass 
V:3 treble-8 nm="Guitar" snm="Guit."
V:1
 z2 z4 z z | z3 F[GA][Fc-]c[GA] | cGF[DA-]A[=E-F]EF | [D=E]EF[CG]FG[AB]B | %4
 [GA][FG-]GF[GA][Fc-]c[GA] | cGFD=E[C-F] C2 | [CD]=EF[CG]FG[AB]B | [GA] F2- F z2 A[Bc] | %8
 cccc[cd][AB]AA | AA[AB][FG]FF[D=E]E | =E[FG]G[GA][G-A]GA[Bc] | cccc[cd][AB]AA | %12
 A[AB][FG]=ED[EF][CG]F | G[G-A]GG F2 z2 | z2 z2 F[GA][Fc-]c | [GA]cGF[DA-]A[=E-F]E | %16
 F[D=E]EF[CG]FG[AB] | B[GA][FG-]GF[GA][Fc-]c | [GA]cGFD=E[C-F]C | CD=EF[CG]FG[AB] | %20
 B[GA] F2- F z z2 | z8 | z8 | z8 | z8 | z8 | z8 | z8 | z3 F[GA][Fc-]c[GA] | cGF[DA-]A[=E-F]EF | %30
 [D=E]EF[CG]FG[AB]B | [GA][FG-]GF[GA][Fc-]c[GA] | cGFD=E[C-F] C2 | [CD]=EF[CG]FG[AB]B | %34
 [GA] F2- F z2 A[Bc] | cccc[cd][AB]AA | AA[AB][FG]FF[D=E]E | =E[FG]G[GA][G-A]GA[Bc] | %38
 cccc[cd][AB]AA | A[AB][FG]=ED[EF][CG]F | G[G-A]GG F2 z2 | z8 | z8 | z8 | z8 | z8 | z8 |] %47
V:2
 F,[C-F][CA]F,[C-F][CA]F,[C-F] | [CA]F,[C-F][CA]F,[C-F][CA][C=E] | %2
 [G-c][G=e][DF][A-f][Ad][A,=E][C-A][Cc] | B,[D-F][DB]A,[C-F][CA][G,D][D-G] | %4
 [DB]C[=EG][Gc]F,[C-F][CA][CE] | [G-c][G=e][DF][A-f][Ad][A,=E][C-A][Cc] | %6
 B,[D-F][DB]A,[CF][FA][G,D][DG] | [Cc]F,[C-F][CA]F,[C-F][CA]F, | [C-F][CA][C=E][G=e][cg]D[FA][Ad] | %9
 A,[CA][=Ec]D[Fd][DA]B,[D-F] | [DB]G,[B,D][DB]C[Gc][c=e]F, | [C-F][CA][C=E][G=e][cg]D[FA][Ad] | %12
 A,[C=e][=Ec]B,[DF][Bd]A,[C-F] | [CA]B,[G-c][G=e]F,[C-F][CA]F, | [C-F][CA]F,[C-F][CA]F,[C-F][CA] | %15
 [C=E][G-c][G=e][DF][A-f][Ad][A,E][C-A] | [Cc]B,[D-F][DB]A,[C-F][CA][G,D] | %17
 [D-G][DB]C[=EG][Gc]F,[C-F][CA] | [C=E][G-c][G=e][DF][A-f][Ad][A,E][C-A] | %19
 [Cc]B,[D-F][DB]A,[CF][FA][G,D] | [DG][Cc]F,[C-F][CA]F,[C-F][CA] | %21
 F,[C-F][CA]F,[C-F][CA][C=E][G=e] | [cg]D[FA][Ad]A,[CA][=Ec]D | [Fd][DA]B,[D-F][DB]G,[B,D][DB] | %24
 C[Gc][c=e]F,[C-F][CA][C=E][Ge] | [cg]D[FA][Ad]A,[C=e][=Ec]B, | [DF][Bd]A,[C-F][CA]B,[Gc][C=e] | %27
 F,[C-F][CA]F,[C-F][CA]F,[C-F] | [CA]F,[C-F][CA]F,[C-F][CA][C=E] | %29
 [G-c][G=e][DF][A-f][Ad][A,=E][C-A][Cc] | B,[D-F][DB]A,[C-F][CA][G,D][D-G] | %31
 [DB]C[=EG][Gc]F,[C-F][CA][CE] | [G-c][G=e][DF][A-f][Ad][A,=E][C-A][Cc] | %33
 B,[D-F][DB]A,[CF][FA][G,D][DG] | [Cc]F,[C-F][CA]F,[C-F][CA]F, | [C-F][CA][C=E][G=e][cg]D[FA][Ad] | %36
 A,[CA][=Ec]D[Fd][DA]B,[D-F] | [DB]G,[B,D][DB]C[Gc][c=e]F, | [C-F][CA] z2 z4 | %39
 B,[DF][Bd]A,[C-F][CA]B,[Gc] | [C=e]F,[CF][FA][Ac][cf][ca][FAcfac'f']- | %41
 [FAcfac'f']-[F-A-cfac'-f'][F-A-c'] [FA]2 z z2 | z8 | z8 | z8 | z8 | z8 |] %47
V:3
[K:C] z8 | z8 | z8 | z8 | z8 | z8 | z8 | z8 | z8 | z8 | z8 | z8 | z8 | z8 | z8 | z8 | z8 | z8 | %18
 z8 | z8 | z8 | z2 a[_bc']c'c'c'c' | [c'd'][a_b]aaaa[ab][fg] | ff[de]ee[fg]g[ga] | %24
 [g-a]ga[_bc']c'c'c'c' | [c'd'][a_b]aaa[ab][fg]e | d[ef][cg]fg[g-a]gg | f4- f2- f2- | f z2 z z4 | %29
 z8 | z8 | z8 | z8 | z8 | z8 | z8 | z8 | z8 | z8 | z8 | z8 | z8 | z8 | z8 | z8 | z8 | z8 |] %47

